germany/municipalities/07331050.svg

<?xml version="1.0" encoding="UTF-8" standalone="no"?>
<!-- Created with Inkscape (http://www.inkscape.org/) -->

<svg
   xmlns:dc="http://purl.org/dc/elements/1.1/"
   xmlns:cc="http://creativecommons.org/ns#"
   xmlns:rdf="http://www.w3.org/1999/02/22-rdf-syntax-ns#"
   xmlns:svg="http://www.w3.org/2000/svg"
   xmlns="http://www.w3.org/2000/svg"
   xmlns:sodipodi="http://sodipodi.sourceforge.net/DTD/sodipodi-0.dtd"
   xmlns:inkscape="http://www.inkscape.org/namespaces/inkscape"
   width="177.17049mm"
   height="209.34361mm"
   viewBox="0 0 627.76944 741.7687"
   id="svg8954"
   version="1.1"
   inkscape:version="0.91 r13725"
   sodipodi:docname="DEU Nack COA.svg">
  <defs
     id="defs8956" />
  <sodipodi:namedview
     id="base"
     pagecolor="#ffffff"
     bordercolor="#666666"
     borderopacity="1.0"
     inkscape:pageopacity="0.0"
     inkscape:pageshadow="2"
     inkscape:zoom="0.72798975"
     inkscape:cx="313.88473"
     inkscape:cy="370.88436"
     inkscape:document-units="px"
     inkscape:current-layer="layer1"
     showgrid="false"
     inkscape:window-width="1366"
     inkscape:window-height="745"
     inkscape:window-x="-8"
     inkscape:window-y="-8"
     inkscape:window-maximized="1"
     fit-margin-top="0"
     fit-margin-left="0"
     fit-margin-right="0"
     fit-margin-bottom="0"
     inkscape:snap-midpoints="true"
     inkscape:snap-smooth-nodes="true"
     inkscape:object-nodes="true"
     inkscape:snap-nodes="true" />
  <metadata
     id="metadata8959">
    <rdf:RDF>
      <cc:Work
         rdf:about="">
        <dc:format>image/svg+xml</dc:format>
        <dc:type
           rdf:resource="http://purl.org/dc/dcmitype/StillImage" />
        <dc:title></dc:title>
      </cc:Work>
    </rdf:RDF>
  </metadata>
  <g
     inkscape:label="Ebene 1"
     inkscape:groupmode="layer"
     id="layer1"
     transform="translate(-14.968639,-13.664673)">
    <path
       style="fill:#ffffff;fill-rule:evenodd;stroke:none;stroke-width:11;stroke-opacity:1"
       inkscape:connector-curvature="0"
       d="M 637.19665,19.164673 634.06892,435.78914 C 627.24369,611.03896 492.39145,749.83526 328.85337,749.93336 165.46238,749.71846 30.559692,610.87216 23.637822,435.78914 l -3.12774,-416.624467 308.335918,0 z"
       id="path10563-0-6-6"
       sodipodi:nodetypes="ccccccc" />
    <path
       style="opacity:1;fill:#ff0000;fill-opacity:1;fill-rule:nonzero;stroke:#000000;stroke-width:8;stroke-linecap:round;stroke-linejoin:round;stroke-miterlimit:4;stroke-dasharray:none;stroke-dashoffset:0;stroke-opacity:1"
       d="M 6.5175781 135.5293 L 6.9804688 197.1875 L 620.78906 197.1875 L 621.25195 135.5293 L 6.5175781 135.5293 z M 12.859375 464.07031 C 16.288853 485.4074 21.643004 506.02641 28.714844 525.72656 L 599.13477 525.72656 C 606.18785 506.02814 611.52391 485.40908 614.9375 464.07031 L 12.859375 464.07031 z "
       transform="translate(14.968639,13.664673)"
       id="rect11099" />
    <path
       style="fill:none;fill-rule:evenodd;stroke:#000000;stroke-width:11;stroke-opacity:1"
       inkscape:connector-curvature="0"
       d="M 637.19665,19.164673 634.06892,435.78914 C 627.24369,611.03896 492.39145,749.83526 328.85337,749.93336 165.46238,749.71846 30.559692,610.87216 23.637815,435.78914 l -3.127731,-416.624467 308.335916,0 z"
       id="path10563-0-6"
       sodipodi:nodetypes="ccccccc" />
    <path
       style="opacity:1;fill:#ff0000;fill-opacity:1;fill-rule:nonzero;stroke:#000000;stroke-width:8;stroke-linecap:round;stroke-linejoin:round;stroke-miterlimit:4;stroke-dasharray:none;stroke-dashoffset:0;stroke-opacity:1"
       d="m 81.289891,64.465454 0,61.658196 61.658209,0 0,-61.658196 -61.658209,0 z m 108.367189,0 0,61.658196 61.6582,0 0,-61.658196 -61.6582,0 z m 108.36719,0 0,61.658196 61.6582,0 0,-61.658196 -61.6582,0 z m 108.36718,0 0,61.658196 61.65821,0 0,-61.658196 -61.65821,0 z m 108.36719,0 0,61.658196 61.6582,0 0,-61.658196 -61.6582,0 z"
       id="rect11133"
       inkscape:connector-curvature="0" />
    <path
       style="opacity:1;fill:#ff0000;fill-opacity:1;fill-rule:nonzero;stroke:#000000;stroke-width:8;stroke-linecap:round;stroke-linejoin:round;stroke-miterlimit:4;stroke-dasharray:none;stroke-dashoffset:0;stroke-opacity:1"
       d="m 107.24204,318.00061 0,61.6582 61.6582,0 0,-61.6582 -61.6582,0 z m 381.56445,0 0,61.6582 61.6582,0 0,-61.6582 -61.6582,0 z"
       id="rect11133-0"
       inkscape:connector-curvature="0" />
    <path
       style="opacity:1;fill:#ff0000;fill-opacity:1;fill-rule:nonzero;stroke:#000000;stroke-width:8;stroke-linecap:round;stroke-linejoin:round;stroke-miterlimit:4;stroke-dasharray:none;stroke-dashoffset:0;stroke-opacity:1"
       d="m 237.22251,561.29553 0,61.6582 61.65821,0 0,-61.6582 -61.65821,0 z m 121.60352,0 0,61.6582 61.6582,0 0,-61.6582 -61.6582,0 z m -60.80078,88.07812 0,61.65821 61.65625,0 0,-61.65821 -61.65625,0 z"
       id="rect11133-1"
       inkscape:connector-curvature="0" />
    <path
       style="opacity:1;fill:#0033ff;fill-opacity:1;fill-rule:nonzero;stroke:#000000;stroke-width:8;stroke-linecap:round;stroke-linejoin:round;stroke-miterlimit:4;stroke-dasharray:none;stroke-dashoffset:0;stroke-opacity:1"
       d="m 197.69712,234.78186 21.81055,25.92969 0,118.88867 0,48.83984 -21.81055,25.92969 43.05664,0 43.05859,0 -21.81054,-25.92969 0,-118.88867 0,-16.01758 176.19726,160.83594 0,-74.76953 0,-44.1211 0,-74.76757 21.81055,-25.92969 -43.0586,0 -43.05664,0 21.81055,25.92969 0,74.76757 0,35.05469 -127.92969,-116.68555 0.006,-0.008 -20.89453,-19.05859 -6.13281,0 -43.05664,0 z"
       id="rect11202"
       inkscape:connector-curvature="0" />
  </g>
</svg>

<svg xmlns="http://www.w3.org/2000/svg" width="669.621" height="791.22" viewBox="0 0 627.769 741.769"><path style="fill:#fff;fill-rule:evenodd;stroke:none;stroke-width:11;stroke-opacity:1" d="m637.197 19.165-3.128 416.624c-6.825 175.25-141.678 314.046-305.216 314.144-163.39-.215-298.293-139.06-305.215-314.144L20.51 19.165h308.336z" transform="translate(-14.969 -13.665)"/><path style="opacity:1;fill:red;fill-opacity:1;fill-rule:nonzero;stroke:#000;stroke-width:8;stroke-linecap:round;stroke-linejoin:round;stroke-miterlimit:4;stroke-dasharray:none;stroke-dashoffset:0;stroke-opacity:1" d="m6.518 135.53.462 61.657h613.81l.462-61.658H6.518zm6.341 328.54a344.012 344.012 0 0 0 15.856 61.657h570.42a344.086 344.086 0 0 0 15.803-61.657H12.859z"/><path style="fill:none;fill-rule:evenodd;stroke:#000;stroke-width:11;stroke-opacity:1" d="m637.197 19.165-3.128 416.624c-6.825 175.25-141.678 314.046-305.216 314.144-163.39-.215-298.293-139.06-305.215-314.144L20.51 19.165h308.336z" transform="translate(-14.969 -13.665)"/><path style="opacity:1;fill:red;fill-opacity:1;fill-rule:nonzero;stroke:#000;stroke-width:8;stroke-linecap:round;stroke-linejoin:round;stroke-miterlimit:4;stroke-dasharray:none;stroke-dashoffset:0;stroke-opacity:1" d="M81.29 64.465v61.659h61.658V64.465H81.29zm108.367 0v61.659h61.658V64.465h-61.658zm108.367 0v61.659h61.658V64.465h-61.658zm108.367 0v61.659h61.659V64.465H406.39zm108.368 0v61.659h61.658V64.465h-61.658zM107.242 318v61.659H168.9V318h-61.658zm381.564 0v61.659h61.659V318h-61.659zM237.223 561.296v61.658h61.658v-61.658h-61.658zm121.603 0v61.658h61.658v-61.658h-61.658zm-60.8 88.078v61.658h61.656v-61.658h-61.657z" transform="translate(-14.969 -13.665)"/><path style="opacity:1;fill:#03f;fill-opacity:1;fill-rule:nonzero;stroke:#000;stroke-width:8;stroke-linecap:round;stroke-linejoin:round;stroke-miterlimit:4;stroke-dasharray:none;stroke-dashoffset:0;stroke-opacity:1" d="m197.697 234.782 21.81 25.93V428.44l-21.81 25.93H283.812l-21.81-25.93V293.534L438.199 454.37V260.712l21.81-25.93H373.895l21.81 25.93v109.822L267.776 253.848l.006-.008-20.894-19.058H197.697z" transform="translate(-14.969 -13.665)"/></svg>
